symbols/web/thermostat_auto/materialsymbolsoutlined/thermostat_auto_wght200_20px.svg

<svg xmlns="http://www.w3.org/2000/svg" height="20" width="20"><path d="M6.875 16.667q-1.437 0-2.427-.99-.99-.989-.99-2.427 0-.854.407-1.625.406-.771 1.218-1.271V5.125q0-.771.511-1.281.51-.511 1.281-.511.771 0 1.281.511.511.51.511 1.281v5.229q.812.5 1.218 1.271.407.771.407 1.625 0 1.396-1.011 2.406-1.01 1.011-2.406 1.011Zm-2.5-3.417h5q0-.625-.333-1.188-.334-.562-.959-1.041l-.333-.25V5.125q0-.354-.26-.615-.261-.26-.615-.26t-.615.26Q6 4.771 6 5.125v5.646l-.333.25q-.625.458-.959 1.031-.333.573-.333 1.198Zm7-2.5 2.854-7.312h.646l2.854 7.312h-.854l-.813-2.083h-3.041l-.813 2.083Zm1.917-2.771h2.52l-1.229-3.25h-.104Z"/></svg>

<svg xmlns="http://www.w3.org/2000/svg" height="20" width="20"><path d="M6.875 16.667Q5.438 16.667 4.448 15.677Q3.458 14.688 3.458 13.25Q3.458 12.396 3.865 11.625Q4.271 10.854 5.083 10.354V5.125Q5.083 4.354 5.594 3.844Q6.104 3.333 6.875 3.333Q7.646 3.333 8.156 3.844Q8.667 4.354 8.667 5.125V10.354Q9.479 10.854 9.885 11.625Q10.292 12.396 10.292 13.25Q10.292 14.646 9.281 15.656Q8.271 16.667 6.875 16.667ZM4.375 13.25H9.375Q9.375 12.625 9.042 12.062Q8.708 11.5 8.083 11.021L7.75 10.771V5.125Q7.75 4.771 7.49 4.51Q7.229 4.25 6.875 4.25Q6.521 4.25 6.26 4.51Q6 4.771 6 5.125V10.771L5.667 11.021Q5.042 11.479 4.708 12.052Q4.375 12.625 4.375 13.25ZM11.375 10.75 14.229 3.438H14.875L17.729 10.75H16.875L16.062 8.667H13.021L12.208 10.75ZM13.292 7.979H15.812L14.583 4.729H14.479Z"/></svg>
